svg/fluentui-system-icons/ic_fluent_album_add_24_filled.svg

<svg width="24" height="24" viewBox="0 0 24 24" fill="none" xmlns="http://www.w3.org/2000/svg">
<path d="M2 6C2 4.89543 2.89543 4 4 4H5V11.1739C3.85258 11.445 2.82266 12.0201 2 12.8096V6ZM16 8.5H12C11.7239 8.5 11.5 8.72386 11.5 9V10C11.5 10.2761 11.7239 10.5 12 10.5H16C16.2761 10.5 16.5 10.2761 16.5 10V9C16.5 8.72386 16.2761 8.5 16 8.5ZM12.5018 20H20C21.1046 20 22 19.1046 22 18V6C22 4.89543 21.1046 4 20 4H6.5V11C10.0899 11 13 13.9101 13 17.5C13 18.3859 12.8228 19.2304 12.5018 20ZM10 9C10 7.89543 10.8954 7 12 7H16C17.1046 7 18 7.89543 18 9V10C18 11.1046 17.1046 12 16 12H12C10.8954 12 10 11.1046 10 10V9ZM6.5 12C9.53757 12 12 14.4624 12 17.5C12 20.5376 9.53757 23 6.5 23C3.46243 23 1 20.5376 1 17.5C1 14.4624 3.46243 12 6.5 12ZM7.00111 20.5035L7.00065 18H9.49659C9.77246 18 9.99609 17.7762 9.99609 17.5C9.99609 17.2239 9.77246 17 9.49659 17H7.00046L7 14.4993C7 14.2231 6.77614 13.9993 6.5 13.9993C6.22386 13.9993 6 14.2231 6 14.4993L6.00046 17H3.4956C3.21973 17 2.99609 17.2239 2.99609 17.5C2.99609 17.7762 3.21973 18 3.4956 18H6.00065L6.00111 20.5035C6.00111 20.7797 6.22497 21.0035 6.50111 21.0035C6.77725 21.0035 7.00111 20.7797 7.00111 20.5035Z" fill="#212121"/>
</svg>

<svg xmlns="http://www.w3.org/2000/svg" width="24" height="24"><path d="M2 6a2 2 0 0 1 2-2h1v7.174a6.488 6.488 0 0 0-3 1.636V6Zm14 2.5h-4a.5.5 0 0 0-.5.5v1a.5.5 0 0 0 .5.5h4a.5.5 0 0 0 .5-.5V9a.5.5 0 0 0-.5-.5ZM12.502 20H20a2 2 0 0 0 2-2V6a2 2 0 0 0-2-2H6.5v7a6.5 6.5 0 0 1 6.002 9ZM10 9a2 2 0 0 1 2-2h4a2 2 0 0 1 2 2v1a2 2 0 0 1-2 2h-4a2 2 0 0 1-2-2V9Zm-3.5 3a5.5 5.5 0 1 1 0 11 5.5 5.5 0 0 1 0-11Zm.501 8.503V18h2.496a.5.5 0 0 0 0-1H7v-2.5a.5.5 0 1 0-1 0V17H3.496a.5.5 0 0 0 0 1H6v2.503a.5.5 0 1 0 1 0Z"/></svg>
